X: 958
T: Tanyards
C:Bill Monroe, Arr. Mike Compton
B: jims roots
M:4/4
L:1/8
Q: 1/4=100
K:Am
V:1 
%N:Tabledited by   Mike Stangeland
%Q:460
A2 AA|| "Am"cBAG ECA,C | EG [A2G2] ABcB | cBAG ECA,C | "E"D^D[AE]A "Am"AA A2 |
|: "Am"cBAG ECA,C | [EC]AAA ABcA | cBAG ECA,C |[1 "E"D^D[AE]"Am"A AA A2 :|
"E"AGEG "Am"AAAG:| E"Am"CA,C ECA,C | E2 D^C =CB,A,A, | A,A,A,C EC[AE][AE] | [AE][AE][AE][AE] "E"A2 e'2|
"Am"G,^G,A,C [EA,]CA,C | EDD^C =CB,A,A, | EEEG ABcB | "E"AGEG "Am"AA A2||
|: "A"eeea ee[e^c][ec] | ^ceec A=cBA | eeea e2 ^cc | "E"^cBA"A"G EA A2 |
eeea ee[e^c][ec] | ^ceea A=cBA | "Am"cBAG E^CA,C | "E"D^DE"Am"A AA A2:|
|: A2 AB ^ccaa | aaaa a^ge^c | AAAB ^ceaa | "E"a^ge^c "A"=c^c A2 |
 AAAB ^caaa | aaaa ag e2 | "Am"cBAG E^CA,C | "E"D^DEA "Am"AA A2:|
V:2 "E"D^D[AE
A "A"A2 A2 |: [P:B Part]G,"Am"^G,A,C ECA,C | "G"EDD^C "Am"=CB,A,A, | EEEG ABcB |
% abcbook-tune_id 6298c297e05825d1e203a513


% abcbook-boost 0
% abcbook-tablature 
% abcbook-transpose 
% abcbook-lastupdated 1654178455918
% abcbook-soundfonts 
% abcbook-repeats 1


